assets/images/button-trigger.svg

<svg width="60" height="60" viewBox="0 0 60 60" fill="none" xmlns="http://www.w3.org/2000/svg">
<rect width="60" height="60" rx="30" fill="white"/>
<path d="M37.4982 30.0002C37.4982 30.1585 37.4315 30.3169 37.3148 30.4419C37.1898 30.5585 37.0315 30.6169 36.8648 30.6169H30.6148V36.8669C30.6148 37.0252 30.5482 37.1835 30.4315 37.3085C30.3065 37.4252 30.1482 37.4835 29.9815 37.4835C29.8148 37.4835 29.6565 37.4169 29.5315 37.3002C29.4065 37.1752 29.3482 37.0169 29.3482 36.8502V30.6002H23.0982C22.9315 30.6002 22.7732 30.5335 22.6482 30.4169C22.5232 30.2919 22.4648 30.1335 22.4648 29.9669C22.4648 29.8002 22.5232 29.6419 22.6398 29.5169C22.7565 29.3919 22.9148 29.3335 23.0815 29.3335H29.3315V23.0835C29.3315 22.9169 29.3898 22.7585 29.5065 22.6335C29.6232 22.5085 29.7815 22.4502 29.9482 22.4502C30.1065 22.4502 30.2648 22.5085 30.3898 22.6252C30.5065 22.7419 30.5648 22.9002 30.5648 23.0669V29.3169H36.8148C36.9732 29.3169 37.1315 29.3752 37.2565 29.4919C37.3732 29.6085 37.4315 29.7669 37.4315 29.9335L37.4982 30.0002Z" fill="#1F1F1F"/>
</svg>

<svg width="60" height="60" viewBox="0 0 60 60" fill="none" xmlns="http://www.w3.org/2000/svg"><rect width="60" height="60" rx="30" fill="#fff"/><path d="M37.498 30a.655.655 0 0 1-.183.442.651.651 0 0 1-.45.175h-6.25v6.25a.654.654 0 0 1-.183.442.65.65 0 0 1-.9-.009.623.623 0 0 1-.184-.45V30.6h-6.25a.623.623 0 0 1-.633-.633c0-.167.058-.325.175-.45a.592.592 0 0 1 .441-.183h6.25v-6.25a.65.65 0 0 1 .175-.45.592.592 0 0 1 .442-.184c.159 0 .317.059.442.175a.617.617 0 0 1 .175.442v6.25h6.25c.158 0 .317.058.442.175a.616.616 0 0 1 .175.441l.066.067Z" fill="#1F1F1F"/></svg>
